X: 751
T: Miss Bruce
M:6/8
L:1/8
B:O'Neill's 751
R:Jig
Z:"Transcribed by Bob Safranek, rjs@gsp.org"
N:"Collected by J. O'Neill"
K:D
   (A/G/) | FAd dcd | Adf fef  | afd afd | cee e2 (A/G/) |
	    FAd dcd | Adf b2 g | afd gec | ded d2       :|
|: (f/g/) | afd dcB | ABA A2 A | gab afd | cee e2 (f/g/) |
	    afd dcd | Bdg b2 g | fga gec | ded d2       :|


